X: 382
M: C
L: 1/8
K: F
V: 1
c |\
|: e |\
f2 (a/g/f) gefc | (f/g/a) (f/g/a) gdde |\
f2 (a/g/f) gdfc | fdcB AFFe |
f2 (a/g/f) gdfc | (f/g/a) (f/g/a) gddg |\
(a/g/f) (g/f/d) (f/d/c) (d/c/B) | (A/B/c) (G/A/B) AFF |]
V: 2 clef=bass middle=d
z |\
f2f2 f2f2 | f2f2 g2g2 |\
f2f2 f2f2 | c2c2 F2F :|\
|: z |\
f2f2 f2f2 | f2f2 g2g2 |
f2f2 f2f2 | c2c2 F2F2 |\
f2f2 f2f2 | f2f2 g2g2 |\
f2g2 a2b2 | c'2c'2 f2f |]

